svgs/sharp-light/puzzle-piece-simple.svg

<svg xmlns="http://www.w3.org/2000/svg" viewBox="0 0 640 512"><!--! Font Awesome Pro 6.6.0 by @fontawesome - https://fontawesome.com License - https://fontawesome.com/license (Commercial License) Copyright 2024 Fonticons, Inc. --><path d="M128 64l16 0 144 0 16 0 0 16 0 23.5 0 9.8-8.8 4.4C280.5 125.2 272 138.3 272 152c0 20.2 19.4 40 48 40s48-19.8 48-40c0-13.7-8.5-26.8-23.2-34.2l-8.8-4.4 0-9.8L336 80l0-16 16 0 144 0 16 0 0 16 0 128 12.7 0c10.9-18.3 28.9-32 51.3-32c19.4 0 35.8 10.5 46.7 25.1s17.3 34.1 17.3 54.9s-6.3 40.2-17.3 54.9s-27.3 25.1-46.7 25.1c-22.4 0-40.4-13.7-51.3-32L512 304l0 128 0 16-16 0-144 0-16 0 0-16 0-23.5 0-9.8 8.8-4.4c14.7-7.4 23.2-20.5 23.2-34.2c0-20.2-19.4-40-48-40s-48 19.8-48 40c0 13.7 8.5 26.8 23.2 34.2l8.8 4.4 0 9.8 0 23.5 0 16-16 0-144 0-16 0 0-16 0-128-12.7 0c-10.9 18.3-28.9 32-51.3 32c-19.4 0-35.8-10.5-46.7-25.1S0 276.8 0 256s6.3-40.2 17.3-54.9S44.6 176 64 176c22.4 0 40.4 13.7 51.3 32l12.7 0 0-128 0-16zm32 32l0 128 0 16-16 0-38.4 0-10.5 0-4.2-9.6C84.2 215 73.4 208 64 208c-7.1 0-14.7 3.8-21.1 12.3S32 241.5 32 256s4.4 27.1 10.9 35.7S56.9 304 64 304c9.4 0 20.2-7 26.9-22.4l4.2-9.6 10.5 0 38.4 0 16 0 0 16 0 128 109.7 0C252 403.1 240 383.2 240 360c0-41.7 37.9-72 80-72s80 30.3 80 72c0 23.2-12 43.1-29.7 56L480 416l0-128 0-16 16 0 38.4 0 10.5 0 4.2 9.6C555.8 297 566.6 304 576 304c7.1 0 14.7-3.8 21.1-12.3s10.9-21.1 10.9-35.7s-4.4-27.1-10.9-35.7s-14.1-12.3-21.1-12.3c-9.4 0-20.2 7-26.9 22.4l-4.2 9.6-10.5 0L496 240l-16 0 0-16 0-128L370.3 96C388 108.9 400 128.8 400 152c0 41.7-37.9 72-80 72s-80-30.3-80-72c0-23.2 12-43.1 29.7-56L160 96z"/></svg>

<svg xmlns="http://www.w3.org/2000/svg" viewBox="0 0 640 512"><!--! Font Awesome Pro 6.4.2 by @fontawesome - https://fontawesome.com License - https://fontawesome.com/license (Commercial License) Copyright 2023 Fonticons, Inc. --><path d="M128 64h16H288h16V80v23.5 9.8l-8.8 4.4C280.5 125.2 272 138.3 272 152c0 20.2 19.4 40 48 40s48-19.8 48-40c0-13.7-8.5-26.8-23.2-34.2l-8.8-4.4v-9.8V80 64h16H496h16V80 208h12.7c10.9-18.3 28.9-32 51.3-32c19.4 0 35.8 10.5 46.7 25.1s17.3 34.1 17.3 54.9s-6.3 40.2-17.3 54.9s-27.3 25.1-46.7 25.1c-22.4 0-40.4-13.7-51.3-32H512V432v16H496 352 336V432 408.5v-9.8l8.8-4.4c14.7-7.4 23.2-20.5 23.2-34.2c0-20.2-19.4-40-48-40s-48 19.8-48 40c0 13.7 8.5 26.8 23.2 34.2l8.8 4.4v9.8V432v16H288 144 128V432 304H115.3c-10.9 18.3-28.9 32-51.3 32c-19.4 0-35.8-10.5-46.7-25.1S0 276.8 0 256s6.3-40.2 17.3-54.9S44.6 176 64 176c22.4 0 40.4 13.7 51.3 32H128V80 64zm32 32V224v16H144 105.6 95.1l-4.2-9.6C84.2 215 73.4 208 64 208c-7.1 0-14.7 3.8-21.1 12.3S32 241.5 32 256s4.4 27.1 10.9 35.7S56.9 304 64 304c9.4 0 20.2-7 26.9-22.4l4.2-9.6h10.5H144h16v16V416H269.7C252 403.1 240 383.2 240 360c0-41.7 37.9-72 80-72s80 30.3 80 72c0 23.2-12 43.1-29.7 56H480V288 272h16 38.4 10.5l4.2 9.6C555.8 297 566.6 304 576 304c7.1 0 14.7-3.8 21.1-12.3s10.9-21.1 10.9-35.7s-4.4-27.1-10.9-35.7s-14.1-12.3-21.1-12.3c-9.4 0-20.2 7-26.9 22.4l-4.2 9.6H534.4 496 480V224 96H370.3C388 108.9 400 128.8 400 152c0 41.7-37.9 72-80 72s-80-30.3-80-72c0-23.2 12-43.1 29.7-56H160z"/></svg>
